X: 803
T: Pretty Little Dog
B: jims roots
M:C|
L:1/8
R: reel
Q: 1/4=100
K:Ador
V:1 
%C:Lee Triplett
eg |"Am" a2 e2 g2 ag | edcB A2 G2 | A2 AA c2 d2 |"G" e4 e2 eg |
"Am"a2 e2 g2 ag | edcB A2 G2 |"F" A2 Ac "G"BAG2 | "Am"A4 A2  :|
AB|:"Am"c2 AB cBcd | edcB A2 G2 | A2 AA c2 d2 |"G" e4 e2 eg |
"Am"a2 e2 g2 ag | edcB A2 G2 |"F" A2 Ac "G"BAG2 | "Am"A4 A4 :|
% abcbook-tune_id 6298c27945b777f8a7b810f6


% abcbook-boost 0
% abcbook-tablature 
% abcbook-transpose 
% abcbook-lastupdated 1654178426667
% abcbook-soundfonts 
% abcbook-repeats 1


